X:1
T:la Lisonjera
T:à Mme la Marquise de Sṯ Paul
T:______
T:La Lisonjera
T:Cécile CHAMINADE (1857-1944)
T:Op. 50
T:Domaine public - Première publication: ~1897
T:Domaine public - Première publication: ~1897
T:Domaine public - Première publication: ~1897
T:Domaine public - Première publication: ~1897
T:Domaine public - Première publication: ~1897
T:Domaine public - Première publication: ~1897
T:Domaine public - Première publication: ~1897
T:Domaine public - Première publication: ~1897
T:Domaine public - Première publication: ~1897
C:Cécile Chaminade
Z:Domaine public - Première publication: ~1897
%%score { ( 1 2 ) | ( 3 4 ) }
L:1/8
Q:1/4=106
M:2/2
K:Gb
V:1 treble nm="Piano" snm="Pno."
V:2 treble 
V:3 bass 
V:4 bass 
V:1
!mf!"^Moderato""^molto capriccioso" D EF | A z G3[Q:1/4=110] G AF | %2
 A z G3!<(! !tenuto!D !tenuto!E!tenuto!F!<)! |[K:Gb] .A.G.d.B[Q:1/4=114] .A.G.F.E | %4
[Q:1/4=110] G z F3 E FG | B z A3 A BG | B z A3 G[Q:1/4=108]"_cresc." AB | %7
[Q:1/4=116] =cABc[Q:1/4=120] dBcd | %8
[Q:1/4=124]"_cresc." (3(e=cd (3=de=e)[Q:1/4=132]!f![I:staff +1] (3([D,,D,][I:staff -1]_d=d (3_e=e"^m.d." f) | %9
"^a Tempo"[Q:1/4=108]!mf! a z[Q:1/4=110] g3 g gf | a z g3!<(! !tenuto!d !tenuto!e!tenuto!f!<)! | %11
!f! a[Q:1/4=116]gd'b a[Q:1/4=112]gfe |[K:Gb][Q:1/4=108] g z[Q:1/4=110] f3!<(! (F=ce | %13
 !arpeggio!.[Feg])!<)! z [Fdf]2[Q:1/4=116]!p! (3((E!>(!A=A) (3B_c=c!>)! | %14
[Q:1/4=110]!pp! .e) z [_F-Bd]2 F(.E.=F.G) | %15
!pp! (.A.B.c.d) e[Q:1/4=102][Gc] !arpeggio![Fc]2[Q:1/4=94] | %16
[Q:1/4=110] !arpeggio![GBg] z [GBg]2 z[Q:1/4=110]!mf! (.=c .d.e) | %17
[Q:1/4=118] (3(de=c[Q:1/4=110] B2- B).c.d.e |[Q:1/4=118] (3(de=c[Q:1/4=110] B2- B.c).d.e | %19
 (f.b)(f.b)[Q:1/4=118] (3(fbf (3bfb) | a z[Q:1/4=110] (f2- f.d.e.f) | %21
[Q:1/4=118] (3(efd[Q:1/4=110] e2- e.d.e.f) | %22
[Q:1/4=118] (e/f/e/d/[Q:1/4=110] e2- e.d.e[Q:1/4=100].f) | %23
[Q:1/4=88]!<(! (12:4:12(gab=c'bag!<)![I:staff +1]fed=c"^m.d."[I:staff -1]B)[Q:1/4=110] .A z({GA)} G z | %24
 !>![=CF]2 z2!ppp![Q:1/4=60][I:staff +1] (6:1:6(_G=G_A[I:staff -1]=AB=B[Q:1/4=106] .=c z .e) | %25
 (3(de=c[Q:1/4=110] B2-"_cresc." B.c.d.e) | (3(de=c B2- B.c.d.e) | %27
 (f.b)(f.b)[Q:1/4=118] (3(fbf (3bfb | %28
[Q:1/4=106] .g) z !>!G2- G!f![Q:1/4=108]!tenuto!B,!tenuto!=C!tenuto!D | %29
 (3(!tenuto!=C!tenuto!D!tenuto!B, !tenuto!C2-[Q:1/4=106]!>(! !tenuto!C!tenuto!B,!tenuto!C!tenuto!D)!>)! | %30
[K:Gb]!p! (3(!tenuto!=C!tenuto!D!tenuto!B, C2-[Q:1/4=104] C!tenuto!C!tenuto!D!tenuto!E) | %31
[Q:1/4=118]({DE)} (D=CDE)[Q:1/4=124]({DE)} (DCD[Q:1/4=112]E) | %32
[Q:1/4=96]"_dim."({DE)} (D=CDF)!pp!"^dolciss."({EF)} E/ z/ DEF | %33
"^a Tempo"[Q:1/4=110] A z[Q:1/4=112] G3"_cresc." G GF | A z G3 !tenuto!D !tenuto!E!tenuto!F | %35
 !tenuto!A.G.d.B .A[Q:1/4=116].G.F.E |[Q:1/4=110] G z[Q:1/4=112] F3 E FG | B z A3 A BG | %38
 B z A3 G AB |[K:Gb][Q:1/4=116]"_cresc." =cABc[Q:1/4=120] dBcd | %40
[Q:1/4=124] (3(e=cd!f! (3=de=e)[Q:1/4=132][I:staff +1] (3([D,,D,][I:staff -1]_d=d (3_e=e f) | %41
"^A tempo"[Q:1/4=110]!mf! a z[Q:1/4=112] g3 g gf | %42
[K:Gb] a z g3[Q:1/4=114] !tenuto!d !tenuto!e!tenuto!f |!f![Q:1/4=116] agd'b[Q:1/4=112] agfe | %44
[Q:1/4=110]!mf! g z[Q:1/4=112] f3!<(! (F=ce!<)! | %45
[K:Gb] !arpeggio!.[Feg]) z ([F-df]2!p![Q:1/4=118]!>(! (3FA=A (3B_c[Q:1/4=108]=c!>)! | %46
!pp! .e) z[Q:1/4=112] [_F-Bd]2 F(.E.=F.G |[Q:1/4=108] .A.B.c.d e)[Q:1/4=102][Gc] !arpeggio![Fc]2 | %48
[Q:1/4=112] !arpeggio![GBg] z [GBg]2 z!mf![Q:1/4=112] (.=c .d.e) | %49
[Q:1/4=118] (3(de=c[Q:1/4=112] B2- B.c.d.e) |[Q:1/4=118] (3(de=c[Q:1/4=112] B2- B.c.d.e) | %51
[K:Gb] (f.b)(f.b)[Q:1/4=118] (3(fbf (3bf.b) |[Q:1/4=112] (a z f2- f.d.e.f) | %53
[Q:1/4=118] (3(efd[Q:1/4=112] e2- e.d.e.f) | %54
[Q:1/4=118] (e/f/e/d/[Q:1/4=112] e2- e.d.e[Q:1/4=100]f) | %55
!f![Q:1/4=90] (12:4:12(g!<(!ab=c'bag!<)![I:staff +1]fed=c[I:staff -1]B)"^m.d."[Q:1/4=112] A z!mf!({GA)} !>!G z | %56
[K:Gb] !>![=CF]2 z2!ppp![Q:1/4=60][I:staff +1] (6:1:6(_G=G_A[I:staff -1]=AB=B[Q:1/4=112] =c!mp! z e) | %57
!mf! (3(de=c B2-[Q:1/4=112] B.c.d.e) | (3(de=c B2- B.c.d.e) | %59
[K:Gb] (f.b)(f.b)[Q:1/4=118] (3(.fbf (3bfb) | %60
[Q:1/4=112] g z !>!G2- G[Q:1/4=108]!tenuto!B,!tenuto!=C!tenuto!D | %61
 (3(!tenuto!=C!tenuto!D!tenuto!B, !tenuto!C2- C[Q:1/4=104]!tenuto!B,!tenuto!C)!tenuto!D | %62
[K:Gb] (3!tenuto!=C!tenuto!D!tenuto!B, !tenuto!C2- C(CDE) | %63
[Q:1/4=118]({DE)} (D=CDE)[Q:1/4=124]({DE)} (DCD[Q:1/4=112]E) | %64
[Q:1/4=96]"_dim."({DE)} (D=CDF)({EF)} E/z/DEF |"^a Tempo"[Q:1/4=108] A z[Q:1/4=116] G3 G GF | %66
 A z G3!<(! !tenuto!D !tenuto!E!tenuto!F!<)! | !tenuto!A.G.d.B .A.G.F.E | G z F3[Q:1/4=112] E FG | %69
 B z A3 A BG | B z A3 G AB |[Q:1/4=116]"_cresc." =cABc[Q:1/4=120] dBcd | %72
[Q:1/4=124] (3(e=cd (3=de=e)[Q:1/4=132]!f![I:staff +1] (3([D,,D,][I:staff -1]_d=d (3_e=e"^m.d." f) | %73
"^a Tempo"[Q:1/4=108]!mf! a z[Q:1/4=110] g3[Q:1/4=110] g gf | %74
 a z g3[Q:1/4=114] !tenuto!d !tenuto!e!tenuto!f |!f![Q:1/4=116] agd'b[Q:1/4=112] agfe | %76
[Q:1/4=106] g z[Q:1/4=110] f3!<(! (F=ce!<)! | %77
 !arpeggio!.[Feg]) z [F-df]2!p![Q:1/4=118]!>(! (3(FA=A (3B_c=c)!>)! | %78
!pp![Q:1/4=110] .e z [_F-Bd]2 F.E[Q:1/4=118].=F.G | %79
[Q:1/4=120] .A.B.c.d"^a Tempo"[Q:1/4=110] e[Gc] (!arpeggio![Fc]2 | %80
 !arpeggio![GBg]) z[Q:1/4=116] ([GBg]3 D Bd | !arpeggio![FBdf]) z ([FBdf]3 D Bd | %82
 !arpeggio![_FBd_f]) z [FBdf]3 (!tenuto!B, !tenuto!C!tenuto!D) | %83
 (!tenuto!E!tenuto!=F!tenuto!G!tenuto!A!>(! B2 cA)!>)! | %84
!pp! !arpeggio![gbd'g'] z ([gbd'g']3 d bd' | !arpeggio![fbd'f']) z ([fbd'f']3 d bd' | %86
 !arpeggio![_fbd'_f']) z ([fbd'f']3 B cd) | (e=fga b2 c'a) | %88
 !arpeggio![Bgbd'] z!<(! d'2 !arpeggio!b2!<)! c'a | !arpeggio![Bgbd'] z d'2 B2 cB | %90
[Q:1/4=96] (3!arpeggio![DGd][Q:1/4=116] ge[Q:1/4=120] (3d Bc[Q:1/4=124] (3d ge[Q:1/4=128] (3d Bc | %91
[Q:1/4=140] (3d ge (3d Bc[Q:1/4=148] (3d ge (3d Bc | %92
[Q:1/4=160]!>(! (3d gb (3e'd'b (3ged (3BG F!>)! | %93
[Q:1/4=110] [CE] z z2"^m.g." !arpeggio![CFAc] z z2 |"^m.g." !arpeggio![B,DGB] z z2 z4 |] %95
V:2
 [Bd] [Bd][Bd] | [Bd] x [Bd]3 [Bd] [Bd][Bd] | [Bd] x [Bd]3 [Bd] [Bd][Bd] |[K:Gb] ([Bd]ddd dddd | %4
 [cd]) x [cd]3 [cd] [cd][cd] | d x d3 d dd | d z d3 d dd | gggg gggg | [ga] x3 [fa_c'] x3 | %9
 [bd'] x [bd']3 [bd'] [bd'][bd'] | [bd'] x [bd']3 [bd'] [bd'][bd'] | [bd'][bd']d'd' d'd'd'd' | %12
[K:Gb] [=c'e'] x [c'e']3 x3 | x8 | x8 | x4 (e2 fd) | x8 | x8 | x8 | x8 | x8 | x8 | x8 | x8 | x8 | %25
 x8 | x8 | x8 | x8 | x8 |[K:Gb] x8 | x8 | x5 ([_cd] [cd][cd] | [Bd]) x [Bd]3 [Bd] [Bd][Bd] | %34
 [Bd] x [Bd]3 [Bd] [Bd][Bd] | ([Bd]ddd dddd) | [cd] x [cd]3 [cd] [cd]d | d x d3 d dd | %38
 d2 d x2 d dd |[K:Gb] gggg gggg | [ga] x3 [fa_c'] x3 | [bd'] x [bd']3 [bd'] [bd'][bd'] | %42
[K:Gb] [bd'] x [bd']3 !tenuto![bd'] !tenuto![bd']!tenuto![bd'] | [bd'][bd']d'd' d'd'd'd' | %44
 [=c'e'] x [c'e']3 x3 |[K:Gb] x8 | x8 | x4 e2 fd | x8 | x8 | x8 |[K:Gb] x8 | x8 | x8 | x8 | x8 | %56
[K:Gb] x8 | x8 | x8 |[K:Gb] x8 | x8 | x8 |[K:Gb] x8 | x8 | x5 [cd] [cd][cd] | %65
 [Bd] x [Bd]3 [Bd] [Bd][Bd] | [Bd]2 [Bd]3 [Bd] [Bd][Bd] | ([Bd]ddd dddd | %68
 [cd]) x [cd]3 [cd] [cd][cd] | d x d3 d dd | d x d3 d dd | gggg gggg | [ga] x3 [fa_c'] x3 | %73
 [bd'] x [bd']3 [bd'] [bd'][bd'] | [bd'] x [bd']3 [bd'] [bd'][bd'] | [bd'][bd']d'd' d'd'd'd' | %76
 [=c'e'] x [c'e']3 x3 | x8 | x8 | x4 e2 fd | x8 | x8 | x8 | x5 [CF]3/2 x3/2 | x8 | x8 | x8 | %87
 x4 b[cf]- [cf]2 | x4 [cf]4 | x4 !arpeggio![CF]4 | x8 | x8 | x8 | x4 d x3 | g x7 |] %95
V:3
 z z2 |!ped! (G,,D,B,D, D,,) z z2!ped-up! |!ped! (G,,D,B,D, D,,) z z2!ped-up! | %3
[K:Gb]!ped! (B,,D,DD, D,,) z!ped-up! z2 |!ped! (A,,D,DD, D,,) z!ped-up! z2 | %5
!<(! (CDFD!<)! F2) !arpeggio![EG] z |!<(! (CDFD!<)! F) z D2 | %7
"^string."!ped! (E,G[A,=C]G)!ped-up!!ped! (E,G[B,D]G)!ped-up! | %8
!ped! !arpeggio![E,A,=CG]2 z2!ped-up!"^m.g."!ped! x4!ped-up! | %9
[K:treble] z!ped! (DBD[K:bass] D,2) [G,,,G,,]2- | z[K:treble] (DBD G,2)!ped-up! z2 | %11
[K:bass]!ped! z[K:treble]!<(! (G dB!<)! AGFE)!ped-up! | %12
[K:Gb]!ped! (=A,[EF]=c[EF][K:bass] F,) z z2!ped-up! | %13
!ped! ([B,,,B,,] F,DF,)!ped-up!"^a capricio" _C2 D,2 | %14
!ped! ([G,,,G,,] G,B,G,)!ped-up! [C,C]2 B,,2 |!ped! (A,,D,CE,) (E,2!ped-up!!ped! D,,2)!ped-up! | %16
!ped! ([G,,,G,,] D,B,D,) G,, z!ped-up!"^marcato" z2 |!ped! z2 ([B,F][F,D] [B,G]2 [G,D]2)!ped-up! | %18
!ped! z2 ([B,F][F,D] [B,G]2!ped-up! [G,D]2) |!ped! z2 ([B,F][F,D]"^rubato" [B,F]2 [F,D]2)!ped-up! | %20
!ped! z2 ([A,F][F,D] [A,F]2 [F,D]2)!ped-up! |!ped! z2 ([B,F][F,D] [B,F]2 [A,D]2)!ped-up! | %22
!ped! z2 ([B,F][F,D] [B,F]2 [A,D]2)!ped-up! | %23
"^rapido"!ped! !arpeggio![E,A,G]2[K:treble]"_m.g." x2 x2 z2!ped-up! | %24
[K:bass]!ped! (!>![=C,F,=A,]2 !>!F,,,) z[K:treble] x4!ped-up! | %25
[K:bass]!ped! z2 ([B,G][F,D] [B,G]2 [G,D]2)!ped-up! |!ped! z2 ([B,G][F,D] [B,G]2 [G,D]2)!ped-up! | %27
!ped! z2 ([_CF][F,D]"^rubato" [CF]2 [F,D]2)!ped-up! |!ped! z2"^marcato" (B,D, B,2 D,2)!ped-up! | %29
!ped! E,,2 (G,E, G,2 E,2)!ped-up! |[K:Gb]!ped! (=G,=E,G,E, G,2)!ped-up! [F,=A,]2 | %31
"^molto string." [B,,F,B,]2 [_G,=A,]2 [B,,F,B,]2 [G,A,]2 | %32
 [B,,F,B,]2"^rit." z2!ped! !arpeggio![_A,,F,_C]2 D,,2!ped-up! | %33
!ped! ([G,,,G,,] D,B,"^poco"D, D,,) z z2!ped-up! |!ped! (G,,D,B,D, D,,) z z2!ped-up! | %35
!ped! ([B,,,B,,] D,DD, D,,) z z2!ped-up! | ([A,,,A,,] D,DD, D,,) z z2 | %37
!<(! (CDFD!<)! F2) !arpeggio![EG] z |!<(! (CDFD!<)! F) z [B,D]2 | %39
[K:Gb]!ped! (E,G"^string."[A,=C]G)!ped-up!!ped! (E,G[B,D]G)!ped-up! | %40
!ped! !arpeggio![E,A,=CG]2 z2!ped-up!!ped! x4!ped-up! | %41
[K:treble] z!ped! (DBD[K:bass] D,2 [G,,,G,,]2-) |[K:Gb] z[K:treble] (DBD G,2) z2!ped-up! | %43
[K:bass]!ped! z[K:treble]!<(! (G dB!<)! AG!ped-up!FE) | %44
!ped! (=A,[EF]=c[EF][K:bass] F,) z z2!ped-up! |[K:Gb] ([B,,,B,,] F,DF,"^a capricio" _C2) D,2 | %46
 (G,,, G,B,G,) [C,C]2 B,,2 |"^dolciss." (A,,E,CE, D,2) D,,2 | %48
 ([G,,,G,,] D,B,D, G,,) z"^marcato" z2 | z2 ([B,F][F,D] [B,G]2 [G,D]2) | %50
 z2 ([B,F][F,D] [B,G]2 [G,D]2) |[K:Gb]!ped! z2 ([B,F][F,D]"^rubato" [B,G]2 [G,D]2)!ped-up! | %52
!ped! z2 ([B,F][F,D] [B,F]2 [F,D]2)!ped-up! |!ped! z2 ([B,F][F,D] [B,F]2!ped-up! [A,D]2) | %54
!ped! z2 ([B,F][F,D] [B,F]2!ped-up! [A,D]2) | %55
"^rapido"!ped! !arpeggio![E,B,G]2[K:treble]"_m.g." x4 z2!ped-up! | %56
[K:Gb][K:bass]!ped! ([=C,F,=A,]2 F,,,) z[K:treble] x4!ped-up! | %57
[K:bass]!ped! z2 ([B,F][F,D] [B,G]2 [G,D]2)!ped-up! |!ped! z2 ([B,F][F,D] [B,G]2 [G,D]2)!ped-up! | %59
[K:Gb][K:bass]!ped! z2 ([_CF][F,D]"^rubato" [CF]2 [F,D]2)!ped-up! | %60
!ped! z2"^marcato" (B,D, B,2 D,2)!ped-up! |!ped! (E,,2 G,E, G,2!ped-up! E,2) | %62
[K:Gb]!ped! (=G,=E,G,E, G,2!ped-up! [F,=A,]2) | %63
"^molto string." [B,,F,B,]2 [_G,=A,]2 [B,,F,B,]2 [G,A,]2 | %64
 [B,,B,]2"^e rit." z2"^dolciss." !arpeggio![_A,,F,_C]2 D,,2 | %65
!ped! ([G,,,G,,]D, B,D, D,,) z z2!ped-up! |!ped! (G,,D,B,D, D,,) z z2!ped-up! | %67
!ped! (B,,D,DD, D,,) z z2!ped-up! |!ped! (A,,D,DD, D,,) z!ped-up! z2 | %69
!<(!!ped! (CDFD!<)! F2) !arpeggio![EG] z |!<(! (CDFD!<)! F) z [B,D]2!ped-up! | %71
!ped! (E,G"^string."[A,=C]G)!ped-up!!ped! (E,G[B,D]G)!ped-up! | %72
!ped! !arpeggio![E,A,=CG]2 z2!ped-up!"^m.g."!ped! x4!ped-up! | %73
[K:treble] z!ped! (DBD[K:bass] D,2) [G,,,G,,]2- | z[K:treble] (DBD G,2)!ped-up! z2 | %75
[K:bass][K:bass]!ped! z[K:treble]!<(! (G dB!<)! AG!ped-up!FE) | %76
!ped! (=A,[EF]=c[EF][K:bass] F,) z z2!ped-up! | %77
!ped! ([B,,,B,,] F,DF,)!ped-up!"^a capricio" _C2 D,2 | %78
!ped! (G,,, G,B,G,)!ped-up! [C,C]2"^string." B,,2 |!ped! (A,,E,CE,) D,2!ped-up!!ped! D,,2!ped-up! | %80
"^dolciss."!ped! z (D,!ped-up!DD, D,,) z z2 |!ped! z!ped-up! (D,DD, D,,) z z2 | %82
!ped! z!ped-up! (D,DD, D,,)"^marcato" z z2 |!ped! z (E,CE,)!ped-up!!ped! !>!D2 D,2!ped-up! | %84
!ped! z[I:staff -1] ([B,G][DB][B,G][I:staff +1] D,) z z2 | %85
 z[I:staff -1] ([B,G][DB][B,G][I:staff +1] D,) z z2!ped-up! | %86
!ped! z[I:staff -1] ([B,_G][D=B][B,G][I:staff +1] E,) z z2!ped-up! | %87
!ped! z[I:staff -1] ([A,A] [Ec]2)!ped-up!!ped![I:staff +1] (D2 D,2)!ped-up! | %88
!ped! z2[K:treble]({de)} !trill(!Td2 d4!ped-up! | %89
[K:bass]!ped! z2!<(!({DE)} !trill(!TD2 D4!ped-up!!<)! | %90
"^dolciss."!ped! [G,,D,B,]"^accel.""^m.g." x7 |"^vivo" x8!ped-up! |!ped! x8!ped-up! | %93
!ped! x4 [D,,D,] z!ped-up! z2 |!ped! [G,,,G,,] z z2 z4!ped-up! |] %95
V:4
 x3 | x8 | x8 |[K:Gb] x8 | x8 | C4- C4 | C4- C x B,2 | x8 | x8 |[K:treble] x4[K:bass] x4 | %10
 [G,,,G,,]4[K:treble] x4 |[K:bass] [B,,,B,,]4[K:treble] x4 |[K:Gb] x4[K:bass] x4 | x8 | x8 | x8 | %16
 x8 | [B,,,B,,]4 x4 | [B,,,B,,]4 x4 | [B,,,B,,]4 x4 | !^![D,,A,,]4 x4 | !^![D,,B,,]4 x4 | %22
 !^![D,,B,,]4 x4 | x2[K:treble] x6 |[K:bass] x4[K:treble] x4 |[K:bass] [B,,,B,,]4 x4 | %26
 [B,,,B,,]4 x4 | [D,,D,]4 x4 | [G,,,G,,]4 x4 | x8 |[K:Gb] x8 | x8 | x8 | x8 | x8 | x8 | x8 | %37
 C4- C4 | C4- C x3 |[K:Gb] x8 | x8 |[K:treble] x4[K:bass] x4 |[K:Gb] [G,,,G,,]4[K:treble] x4 | %43
[K:bass] [B,,,B,,]4[K:treble] x4 | x4[K:bass] x4 |[K:Gb] x8 | x8 | x8 | x8 | [B,,,B,,]4 x4 | %50
 [B,,,B,,]4 x4 |[K:Gb] [B,,,B,,]4 x4 | !^![D,,A,,]4 x4 | !^![D,,B,,]4 x4 | !^![D,,B,,]4 x4 | %55
 x2[K:treble] x6 |[K:Gb][K:bass] x4[K:treble] x4 |[K:bass] [B,,,B,,]4 x4 | [B,,,B,,]4 x4 | %59
[K:Gb][K:bass] [D,,D,]4 x4 | [G,,,G,,]4 x4 | x8 |[K:Gb] x8 | x8 | x8 | x8 | x8 | x8 | x8 | C4- C4 | %70
 C2 x2 C x3 | x8 | x8 |[K:treble] x4[K:bass] x4 | [G,,,G,,]4[K:treble] x4 | %75
[K:bass][K:bass] [B,,,B,,]4[K:treble] x4 | x4[K:bass] x4 | x8 | x8 | x8 | [G,,,G,,]8 | [G,,,G,,]8 | %82
 [G,,,G,,]8 | [G,,,G,,]4 x2 D,2 | [G,,,G,,]8 | [G,,,G,,]8 | [E,,,E,,]8 | [A,,,A,,]4 x4 | %88
 [G,,,G,,]4[K:treble] x4 |[K:bass] [G,,,G,,]4 x4 | x8 | x8 | x8 | x8 | x8 |] %95

